dist/images/icon-question.svg

<svg xmlns="http://www.w3.org/2000/svg" width="18" height="26"><path fill-rule="evenodd" fill="#FFF" d="M6.448 22.883c0 1.361 1.117 2.584 2.539 2.584 1.336 0 2.538-1.137 2.538-2.584 0-1.361-1.117-2.584-2.538-2.584-1.337 0-2.539 1.137-2.539 2.584zm4.823-4.566c0-1.188.321-2.17 1.083-2.842 2.267-1.964 5.056-3.79 5.056-6.805 0-4.772-4.041-7.908-8.423-7.908C4.384.762.932 4.156.881 8.67h5.06c.051-1.809 1.303-3.153 3.046-3.153 1.81 0 3.333 1.43 3.333 3.153 0 2.222-2.538 3.153-3.689 4.514-1.286 1.395-1.929 3.1-1.929 5.133h4.569z"/></svg>

<svg 
 xmlns="http://www.w3.org/2000/svg"
 xmlns:xlink="http://www.w3.org/1999/xlink"
 width="18px" height="26px">
<path fill-rule="evenodd"  fill="rgb(255, 255, 255)"
 d="M6.448,22.883 C6.448,24.244 7.565,25.467 8.987,25.467 C10.323,25.467 11.525,24.330 11.525,22.883 C11.525,21.522 10.408,20.299 8.987,20.299 C7.650,20.299 6.448,21.436 6.448,22.883 ZM11.271,18.317 C11.271,17.129 11.592,16.147 12.354,15.475 C14.621,13.511 17.41,11.685 17.41,8.670 C17.41,3.898 13.369,0.762 8.987,0.762 C4.384,0.762 0.932,4.156 0.881,8.670 L5.941,8.670 C5.992,6.861 7.244,5.517 8.987,5.517 C10.797,5.517 12.32,6.947 12.32,8.670 C12.32,10.892 9.782,11.823 8.631,13.184 C7.345,14.579 6.702,16.284 6.702,18.317 L11.271,18.317 Z"/>
</svg>
